!!!SOCIAL_FUNCTION:	deer dance songs
!!!PDT:	1932
!!!OTL: No_61_The_Water_Bug_Sees_a_Fish.krn
!!!REG: Southwest
!!!LANG: Non-Tone
!!!LING_GROUP: Yuman-Cochimi
**kern	**kern
*staff2	*staff1
=1-	=1-
*clefF4	*clefF4
*k[f#c#g#d#a#]	*k[f#c#g#d#a#]
*M3/8	*M3/8
8r	4r
8GG#/	.
8r	8B\
=2	=2
8GG#/	4G#\
8r	.
8GG#/	8F#\
=3	=3
8r	8d#\L
8GG#/	8A#\
8r	8A#\J
=4	=4
8GG#/	8B\L
8r	8A#\
8GG#/	8B\J
=5	=5
8r	8A#\L
8GG#/	8A#\
8r	8B\J
=6	=6
8GG#/	4G#\
8r	.
8GG#/	8G#\
=7||	=7||
*M4/8	*M4/8
8r	8G#\
8GG#/	8G#\
8r	8G#\
8GG#/	16D#\
.	16r
=8||	=8||
*M3/8	*M3/8
8r	8d#\L
8GG#/	8A#\
8r	8A#\J
=9||	=9||
*M4/8	*M4/8
8GG#/	8B\
8r	8G#\
8GG#/	4A#\
8r	.
=10||	=10||
*M3/4	*M3/4
8GG#/	8B\L
8r	8G#\J
8GG#/	4G#\
8r	.
8GG#/	8G#\L
8r	8E\J
=11	=11
8GG#/	2G#\
8r	.
8GG#/	.
8r	.
4r	8r
.	8G#\
=12||	=12||
*M3/8	*M3/8
8GG#/	4E\
8r	.
8GG#/	8G#\
=13	=13
8r	8A#\L
8GG#/	8E\
8r	8E\J
=14	=14
8GG#/	8G#\L
8r	8G#\
8GG#/	8G#\J
=15	=15
8r	8G#\L
8GG#/	8G#\J
8r	8r
=16	=16
8GG#/	4E\
8r	.
8GG#/	8E\
=17||	=17||
*M4/8	*M4/8
8r	8E\
8GG#/	8G#\
8r	8G#\
8GG#/	8E\
=18||	=18||
*M5/8	*M5/8
8r	4.E\
8GG#/	.
8r	.
8GG#/	8G#\L
8r	8E\J
=19||	=19||
*M4/8	*M4/8
8GG#/	8G#\
8r	8G#\
8GG#/	8G#\
8r	8G#\
=20	=20
8GG#/	4G#\
8r	.
8GG#/	8G#\
8r	8E\
=21||	=21||
*M3/4	*M3/4
8GG#/	4G#\
8r	.
8GG#/	4.r
8r	.
8GG#/	.
8r	8G#\
=22||	=22||
*M3/8	*M3/8
8GG#/	4E\
8r	.
8GG#/	8G#\
=23	=23
8r	8A#\L
8GG#/	8E\
8r	8E\J
=24	=24
8GG#/	8G#\L
8r	8G#\
8GG#/	8G#\J
=25	=25
8r	8G#\L
8GG#/	8G#\J
8r	8r
=26	=26
8GG#/	4E\
8r	.
8GG#/	8E\
=27||	=27||
*M4/8	*M4/8
8r	8E\
8GG#/	8G#\
8r	8G#\
8GG#/	8E\
=28||	=28||
*M5/8	*M5/8
8r	4G#\
8GG#/	.
8r	8r
8GG#/	8G#\L
8r	8E\J
=29||	=29||
*M4/8	*M4/8
8GG#/	8G#\
8r	8G#\
8GG#/	8G#\
8r	8G#\
=30	=30
8GG#/	4G#\
8r	.
8GG#/	4G#\
8r	.
=31	=31
8GG#/	4G#\
8r	.
4r	4r
==	==
*-	*-
